communes/28.svg

<?xml version="1.0" encoding="UTF-8" standalone="no"?>
<svg
   xmlns:dc="http://purl.org/dc/elements/1.1/"
   xmlns:cc="http://creativecommons.org/ns#"
   xmlns:rdf="http://www.w3.org/1999/02/22-rdf-syntax-ns#"
   xmlns:svg="http://www.w3.org/2000/svg"
   xmlns="http://www.w3.org/2000/svg"
   xmlns:sodipodi="http://sodipodi.sourceforge.net/DTD/sodipodi-0.dtd"
   xmlns:inkscape="http://www.inkscape.org/namespaces/inkscape"
   version="1.0"
   width="202.72174"
   height="237.45688"
   id="svg2780"
   sodipodi:docname="28.svg">
  <metadata
     id="metadata18">
    <rdf:RDF>
      <cc:Work
         rdf:about="">
        <dc:format>image/svg+xml</dc:format>
        <dc:type
           rdf:resource="http://purl.org/dc/dcmitype/StillImage" />
      </cc:Work>
    </rdf:RDF>
  </metadata>
  <sodipodi:namedview
     pagecolor="#ffffff"
     bordercolor="#666666"
     borderopacity="1"
     objecttolerance="10"
     gridtolerance="10"
     guidetolerance="10"
     inkscape:pageopacity="0"
     inkscape:pageshadow="2"
     inkscape:window-width="640"
     inkscape:window-height="480"
     id="namedview16" />
  <defs
     id="defs2782" />
  <g
     transform="translate(-24.399909,-813.34852)"
     id="layer1">
    <path
       d="M 25.362195,814.31081 L 29.013048,967.68069 C 31.620799,1077.2306 219.90075,1077.2306 222.5085,967.68069 L 226.15936,814.31081 L 25.362195,814.31081 z "
       style="fill:#cd3121;fill-opacity:1;fill-rule:evenodd;stroke:#000000;stroke-width:1.92457116;stroke-linecap:butt;stroke-miterlimit:4;stroke-dashoffset:0;stroke-opacity:1"
       id="path3282" />
    <path
       d="M 151.29259,997.76694 C 146.62532,998.46377 141.95072,1001.2931 142.05801,1006.73 C 142.16532,1012.1679 132.64265,1018.3678 132.73519,1011.6073 C 132.82772,1004.9716 128.22343,1011.3378 127.24078,1018.3866 C 126.26065,1025.4173 116.03927,1031.5167 116.23888,1024.8502 C 116.43849,1018.0592 113.53206,1019.3293 111.6799,1020.5716 C 109.99572,1021.7012 112.94413,1025.4388 106.90856,1031.6862 C 100.93497,1037.8695 92.704876,1038.1017 94.759356,1031.0974 C 96.891082,1023.8298 91.763728,1024.1665 87.976131,1028.032 C 84.126719,1031.9606 74.832825,1031.7416 72.591613,1026.6813 C 70.317477,1021.5467 73.470345,1017.335 77.515103,1015.6244 C 81.470318,1013.9516 84.076378,1009.7924 78.193022,1007.9661 C 72.195876,1006.1045 81.588478,995.66879 89.357531,997.47748 C 97.098158,999.27956 98.937496,997.44643 97.79147,993.68868 C 96.610618,989.81674 105.54153,985.54221 111.69033,990.12548 C 117.8732,994.73406 119.7759,994.73453 121.51143,991.20591 C 123.27193,987.62652 128.0559,988.10837 133.73901,991.53116 C 139.27546,994.86561 142.81362,994.14948 151.29259,997.76694 z "
       style="opacity:1;color:#000000;fill:#315a31;fill-opacity:1;fill-rule:evenodd;stroke:#000000;stroke-width:0.94686812px;stroke-linecap:butt;stroke-linejoin:miter;marker:none;marker-start:none;marker-mid:none;marker-end:none;stroke-miterlimit:4;stroke-dasharray:none;stroke-dashoffset:0;stroke-opacity:1;visibility:visible;display:inline;overflow:visible;enable-background:accumulate"
       id="path3233" />
    <path
       d="M 151.29259,193.43625 C 129.96984,193.70828 108.58224,203.41548 89.491819,214.62786"
       transform="translate(0,804.33069)"
       style="opacity:1;color:#000000;fill:none;fill-opacity:0.75;fill-rule:evenodd;stroke:#000000;stroke-width:1px;stroke-linecap:butt;stroke-linejoin:miter;marker:none;marker-start:none;marker-mid:none;marker-end:none;stroke-miterlimit:4;stroke-dasharray:none;stroke-dashoffset:0;stroke-opacity:1;visibility:visible;display:inline;overflow:visible;enable-background:accumulate"
       id="path3245" />
    <path
       d="M 199.67395,94.22522 C 209.60364,108.35113 225.14214,84.586361 205.90597,79.766931 C 210.93313,62.691194 188.41476,63.563677 191.44768,78.271246 C 186.50882,76.242363 182.05404,73.152555 178.11116,69.795698 C 193.44193,52.719961 191.69696,27.044035 208.89734,21.435216 C 189.22071,19.905597 185.17966,39.455045 175.68624,55.268821 C 166.15997,71.137335 150.87219,66.759104 154.55411,54.464927 C 158.22594,42.204472 149.52695,26.545473 157.29621,15.452476 C 142.92261,23.875805 147.76252,29.165411 146.45266,47.038803 C 145.1435,64.902679 122.75719,68.37792 123.51866,53.343162 C 124.28048,38.301595 112.84113,30.658607 113.1735,15.701757 C 104.05822,26.207269 112.54173,35.826184 113.49783,51.082147 C 114.4534,66.329825 96.608831,69.439635 94.103515,57.207015 C 91.607753,45.021046 73.122378,29.869217 72.291442,17.945284 C 64.655706,27.083659 77.111382,41.768048 83.411067,56.453405 C 89.684634,71.07788 75.640398,75.278915 67.181185,62.317272 C 58.778936,49.442914 36.962406,38.295257 34.151474,19.191688 C 30.342929,47.601986 61.738554,62.774059 61.697007,74.033472 C 61.65546,85.292656 32.115681,87.41154 33.154351,107.68638 C 39.884934,93.643561 50.022354,96.136372 59.079558,91.35849 C 68.188721,86.553198 71.630534,82.549951 73.262582,81.936785 C 74.78489,81.364849 79.072006,82.559848 85.752607,81.137976 C 92.552398,79.690736 94.261271,77.277354 96.057125,76.577012 C 97.744296,75.919054 101.97598,77.669806 109.30965,76.152359 C 116.61762,74.640231 120.14516,70.651188 122.09794,70.742877 C 124.42673,70.85222 127.3611,73.205287 135.85805,73.41027 C 144.47964,73.615253 144.82027,72.006438 146.60622,72.140549 C 148.2682,72.26535 149.99353,74.744223 157.54549,76.40164 C 165.24189,78.090757 167.86399,75.704481 169.25641,76.183537 C 170.6827,76.674248 172.94421,80.776077 177.51215,83.166885 C 182.13025,85.583946 186.08553,86.495814 188.45631,86.996075 C 171.00665,95.762451 195.18689,113.87686 199.67395,94.22522 z "
       transform="translate(0,804.33069)"
       style="fill:#ecda31;fill-opacity:1;fill-rule:evenodd;stroke:#000000;stroke-width:1px;stroke-linecap:butt;stroke-linejoin:miter;stroke-opacity:1"
       id="path2257" />
    <path
       d="M 164.44934,205.61502 C 168.41406,197.38661 172.89833,191.81949 180.9773,185.86995 C 189.13687,179.86105 190.66785,176.30572 184.52289,174.32343 C 178.49072,172.37752 182.57428,168.26041 191.40066,166.68632 C 200.24775,165.10855 205.41979,154.21557 197.66963,153.88291 C 189.79482,153.55025 192.70824,149.1162 204.64734,144.91462 C 216.69729,140.67403 211.3654,130.03789 206.23376,130.81316 C 201.08227,131.59143 200.33717,129.405 204.43716,126.32826 C 208.45699,123.31168 209.01663,113.99443 202.695,111.43794 C 196.15856,108.79458 189.27885,113.61421 187.90187,116.88798 C 185.00544,123.77425 182.72357,125.38231 181.26417,117.74793 C 179.76285,109.89428 168.78812,117.20107 169.47558,125.86146 C 170.17287,134.6457 171.71495,142.55734 166.85294,137.55412 C 161.93,132.4882 155.18226,143.69547 158.2549,151.07667 C 161.34564,158.50131 165.31534,165.82593 158.77485,165.25847 C 152.24392,164.69184 154.55455,174.69047 157.64423,182.45974 C 160.77666,190.33651 162.4551,196.39163 164.44934,205.61502 z "
       transform="translate(0,804.33069)"
       style="opacity:1;color:#000000;fill:#315a31;fill-opacity:1;fill-rule:evenodd;stroke:#000000;stroke-width:1px;stroke-linecap:butt;stroke-linejoin:miter;marker:none;marker-start:none;marker-mid:none;marker-end:none;stroke-miterlimit:4;stroke-dasharray:none;stroke-dashoffset:0;stroke-opacity:1;visibility:visible;display:inline;overflow:visible;enable-background:accumulate"
       id="path3229" />
    <path
       d="M 112.38569,975.85781 C 109.46665,972.32706 103.95452,966.98819 103.67412,961.23437 C 103.39395,955.48527 99.238475,949.1042 94.482292,952.80601 C 89.78588,956.4613 88.67026,950.45153 89.478705,944.14368 C 90.271432,937.95848 84.312047,930.37381 80.922519,933.33938 C 77.470502,936.35962 71.855152,937.88168 72.721353,927.70671 C 73.577018,917.65549 60.937337,914.31721 61.168584,920.38551 C 61.399831,926.57845 56.863155,926.19733 53.670821,922.29017 C 50.527791,918.44336 44.185577,915.90199 40.610744,920.1269 C 36.983386,924.41388 39.852026,931.59282 43.25181,934.37269 C 46.576346,937.09104 52.382774,945.59656 43.604733,943.10657 C 34.858653,940.62565 40.242774,956.96173 48.763342,956.32949 C 57.407864,955.68805 64.876206,959.78896 55.810695,961.82536 C 46.863797,963.83512 60.611811,974.32103 67.802028,971.65365 C 75.032054,968.97151 86.692393,970.96237 78.192006,974.2246 C 69.649235,977.50309 83.759357,982.42338 90.75679,979.25964 C 97.857863,976.04904 103.5327,975.47233 112.38569,975.85781 z "
       style="opacity:1;color:#000000;fill:#315a31;fill-opacity:1;fill-rule:evenodd;stroke:#000000;stroke-width:0.94686812px;stroke-linecap:butt;stroke-linejoin:miter;marker:none;marker-start:none;marker-mid:none;marker-end:none;stroke-miterlimit:4;stroke-dasharray:none;stroke-dashoffset:0;stroke-opacity:1;visibility:visible;display:inline;overflow:visible;enable-background:accumulate"
       id="path3231" />
    <path
       d="M 112.63497,170.77928 C 88.203921,159.66856 63.987407,143.63967 50.604009,127.13029"
       transform="translate(0,804.33069)"
       style="opacity:1;color:#000000;fill:none;fill-opacity:0.75;fill-rule:evenodd;stroke:#000000;stroke-width:1px;stroke-linecap:butt;stroke-linejoin:miter;marker:none;marker-start:none;marker-mid:none;marker-end:none;stroke-miterlimit:4;stroke-dasharray:none;stroke-dashoffset:0;stroke-opacity:1;visibility:visible;display:inline;overflow:visible;enable-background:accumulate"
       id="path3243" />
    <path
       d="M 164.52535,202.66238 C 168.69572,174.30068 178.41232,148.82239 188.45631,130.8695"
       transform="translate(0,804.33069)"
       style="opacity:1;color:#000000;fill:none;fill-opacity:0.75;fill-rule:evenodd;stroke:#000000;stroke-width:1px;stroke-linecap:butt;stroke-linejoin:miter;marker:none;marker-start:none;marker-mid:none;marker-end:none;stroke-miterlimit:4;stroke-dasharray:none;stroke-dashoffset:0;stroke-opacity:1;visibility:visible;display:inline;overflow:visible;enable-background:accumulate"
       id="path3241" />
    <path
       d="M 172.3777,228.58759 C 175.32752,227.02186 177.65414,225.92996 180.60397,223.72661 C 155.63434,171.08681 123.31092,192.48342 128.00571,150.31341 C 126.51002,150.23032 125.01434,150.14722 123.51865,150.06413 C 122.47998,159.95227 123.68484,169.71577 127.50715,175.61541 C 120.24293,171.55948 112.66124,168.77345 105.07187,166.0181 C 104.6564,167.05677 104.24094,168.09544 103.82547,169.13411 C 128.1719,181.09959 171.08975,196.92892 172.3777,228.58759 z "
       transform="translate(0,804.33069)"
       style="opacity:1;color:#000000;fill:#ecda31;fill-opacity:1;fill-rule:evenodd;stroke:#000000;stroke-width:1px;stroke-linecap:butt;stroke-linejoin:miter;marker:none;marker-start:none;marker-mid:none;marker-end:none;stroke-miterlimit:4;stroke-dasharray:none;stroke-dashoffset:0;stroke-opacity:1;visibility:visible;display:inline;overflow:visible;enable-background:accumulate"
       id="path3235" />
    <path
       d="M 110.43141,129.12453 L 140.09583,129.49846 C 147.20948,73.105953 105.35444,67.862565 110.43141,129.12453 z "
       transform="translate(0,804.33069)"
       style="opacity:1;color:#000000;fill:#ecda31;fill-opacity:1;fill-rule:evenodd;stroke:#000000;stroke-width:1px;stroke-linecap:butt;stroke-linejoin:miter;marker:none;marker-start:none;marker-mid:none;marker-end:none;stroke-miterlimit:4;stroke-dasharray:none;stroke-dashoffset:0;stroke-opacity:1;visibility:visible;display:inline;overflow:visible;enable-background:accumulate"
       id="path3239" />
    <path
       d="M 110.55605,127.13029 C 120.44419,128.27713 130.33233,128.5559 140.22047,127.37957 C 152.93379,131.82508 147.15879,153.59561 125.76218,152.68158 C 104.37053,151.76776 101.74813,134.27634 110.55605,127.13029 z "
       transform="translate(0,804.33069)"
       style="opacity:1;color:#000000;fill:#ecda31;fill-opacity:1;fill-rule:evenodd;stroke:#000000;stroke-width:1px;stroke-linecap:butt;stroke-linejoin:miter;marker:none;marker-start:none;marker-mid:none;marker-end:none;stroke-miterlimit:4;stroke-dasharray:none;stroke-dashoffset:0;stroke-opacity:1;visibility:visible;display:inline;overflow:visible;enable-background:accumulate"
       id="path3237" />
  </g>
</svg>

<?xml version="1.0" encoding="UTF-8"?>
<svg version="1.0" viewBox="0 0 202.72 237.46" xmlns="http://www.w3.org/2000/svg" xmlns:cc="http://creativecommons.org/ns#" xmlns:dc="http://purl.org/dc/elements/1.1/" xmlns:rdf="http://www.w3.org/1999/02/22-rdf-syntax-ns#">
<metadata>
<rdf:RDF>
<cc:Work rdf:about="">
<dc:format>image/svg+xml</dc:format>
<dc:type rdf:resource="http://purl.org/dc/dcmitype/StillImage"/>
</cc:Work>
</rdf:RDF>
</metadata>
<g transform="translate(-24.4 -813.35)" stroke="#000">
<path d="m25.362 814.31 3.6509 153.37c2.6078 109.55 190.89 109.55 193.5 0l3.6509-153.37h-200.8z" fill="#cd3121" fill-rule="evenodd" stroke-width="1.9246"/>
<path d="m151.29 997.77c-4.6673 0.69683-9.3419 3.5262-9.2346 8.9631 0.10731 5.4379-9.4154 11.638-9.3228 4.8773 0.09253-6.6357-4.5118-0.2695-5.4944 6.7793-0.98013 7.0307-11.202 13.13-11.002 6.4636 0.19961-6.791-2.7068-5.5209-4.559-4.2786-1.6842 1.1296 1.2642 4.8672-4.7713 11.115-5.9736 6.1833-14.204 6.4155-12.149-0.5888 2.1317-7.2676-2.9956-6.9309-6.7832-3.0654-3.8494 3.9286-13.143 3.7096-15.385-1.3507-2.2741-5.1346 0.87873-9.3463 4.9235-11.057 3.9552-1.6728 6.5613-5.832 0.67792-7.6583-5.9971-1.8616 3.3955-12.297 11.165-10.489 7.7406 1.8021 9.58-0.03105 8.4339-3.7888-1.1809-3.8719 7.7501-8.1465 13.899-3.5632 6.1829 4.6086 8.0856 4.609 9.8211 1.0804 1.7605-3.5794 6.5445-3.0975 12.228 0.32525 5.5364 3.3344 9.0746 2.6183 17.554 6.2358z" color="#000000" fill="#315a31" fill-rule="evenodd" stroke-width=".94687px"/>
<path transform="translate(0 804.33)" d="m151.29 193.44c-21.323 0.27203-42.71 9.9792-61.801 21.192" color="#000000" fill="none" stroke-width="1px"/>
<path transform="translate(0 804.33)" d="m199.67 94.225c9.9297 14.126 25.468-9.6389 6.232-14.458 5.0272-17.076-17.491-16.203-14.458-1.4957-4.9389-2.0289-9.3936-5.1187-13.337-8.4755 15.331-17.076 13.586-42.752 30.786-48.36-19.677-1.5296-23.718 18.02-33.211 33.834-9.5263 15.869-24.814 11.49-21.132-0.80389 3.6718-12.26-5.0272-27.919 2.7421-39.012-14.374 8.4233-9.5337 13.713-10.844 31.586-1.3092 17.864-23.695 21.339-22.934 6.3044 0.76182-15.042-10.678-22.685-10.345-37.641-9.1153 10.506-0.63177 20.124 0.32433 35.38 0.95557 15.248-16.889 18.357-19.394 6.1249-2.4958-12.186-20.981-27.338-21.812-39.262-7.6357 9.1384 4.8199 23.823 11.12 38.508 6.2736 14.624-7.7707 18.826-16.23 5.8639-8.4022-12.874-30.219-24.022-33.03-43.126-3.8085 28.41 27.587 43.582 27.546 54.842-0.041547 11.259-29.581 13.378-28.543 33.653 6.7306-14.043 16.868-11.55 25.925-16.328 9.1092-4.8053 12.551-8.8085 14.183-9.4217 1.5223-0.57194 5.8094 0.62306 12.49-0.79881 6.7998-1.4472 8.5087-3.8606 10.305-4.561 1.6872-0.65796 5.9189 1.0928 13.253-0.42465 7.308-1.5121 10.836-5.5012 12.788-5.4095 2.3288 0.10934 5.2632 2.4624 13.76 2.6674 8.6216 0.20498 8.9622-1.4038 10.748-1.2697 1.662 0.1248 3.3873 2.6037 10.939 4.2611 7.6964 1.6891 10.318-0.69716 11.711-0.2181 1.4263 0.49071 3.6878 4.5925 8.2557 6.9833 4.6181 2.4171 8.5734 3.3289 10.944 3.8292-17.45 8.7664 6.7306 26.881 11.218 7.2291z" fill="#ecda31" fill-rule="evenodd" stroke-width="1px"/>
<path transform="translate(0 804.33)" d="m164.45 205.62c3.9647-8.2284 8.449-13.796 16.528-19.745 8.1596-6.0089 9.6906-9.5642 3.5456-11.547-6.0322-1.9459-1.9486-6.063 6.8778-7.6371 8.8471-1.5778 14.019-12.471 6.269-12.803-7.8748-0.33266-4.9614-4.7667 6.9777-8.9683 12.05-4.2406 6.7181-14.877 1.5864-14.101-5.1515 0.77827-5.8966-1.4082-1.7966-4.4849 4.0198-3.0166 4.5795-12.334-1.7422-14.89-6.5364-2.6434-13.416 2.1763-14.793 5.45-2.8964 6.8863-5.1783 8.4943-6.6377 0.85995-1.5013-7.8536-12.476-0.54686-11.789 8.1135 0.69729 8.7842 2.2394 16.696-2.6226 11.693-4.9229-5.0659-11.671 6.1414-8.598 13.523 3.0907 7.4246 7.0604 14.749 0.51995 14.182-6.5309-0.56663-4.2203 9.432-1.1306 17.201 3.1324 7.8768 4.8109 13.932 6.8051 23.155z" color="#000000" fill="#315a31" fill-rule="evenodd" stroke-width="1px"/>
<path d="m112.39 975.86c-2.919-3.5308-8.4312-8.8696-8.7116-14.623-0.28017-5.7491-4.4356-12.13-9.1918-8.4284-4.6964 3.6553-5.812-2.3545-5.0036-8.6623 0.79273-6.1852-5.1667-13.77-8.5562-10.804-3.452 3.0202-9.0674 4.5423-8.2012-5.6327 0.85566-10.051-11.784-13.39-11.553-7.3212 0.23125 6.1929-4.3054 5.8118-7.4978 1.9047-3.143-3.8468-9.4852-6.3882-13.06-2.1633-3.6274 4.287-0.75872 11.466 2.6411 14.246 3.3245 2.7184 9.131 11.224 0.35292 8.7339-8.7461-2.4809-3.362 13.855 5.1586 13.223 8.6445-0.64144 16.113 3.4595 7.0474 5.4959-8.9469 2.0098 4.8011 12.496 11.991 9.8283 7.23-2.6821 18.89-0.69128 10.39 2.571-8.5428 3.2785 5.5674 8.1988 12.565 5.035 7.1011-3.2106 12.776-3.7873 21.629-3.4018z" color="#000000" fill="#315a31" fill-rule="evenodd" stroke-width=".94687px"/>
<path transform="translate(0 804.33)" d="m112.63 170.78c-24.431-11.111-48.648-27.14-62.031-43.649" color="#000000" fill="none" stroke-width="1px"/>
<path transform="translate(0 804.33)" d="m164.53 202.66c4.1704-28.362 13.887-53.84 23.931-71.793" color="#000000" fill="none" stroke-width="1px"/>
<path transform="translate(0 804.33)" d="m172.38 228.59c2.9498-1.5657 5.2764-2.6576 8.2263-4.861-24.97-52.64-57.293-31.243-52.598-73.413-1.4957-0.08309-2.9914-0.16619-4.4871-0.24928-1.0387 9.8881 0.16619 19.652 3.9885 25.551-7.2642-4.0559-14.846-6.842-22.435-9.5973-0.41547 1.0387-0.83093 2.0773-1.2464 3.116 24.346 11.965 67.264 27.795 68.552 59.453z" color="#000000" fill="#ecda31" fill-rule="evenodd" stroke-width="1px"/>
<path transform="translate(0 804.33)" d="m110.43 129.12 29.664 0.37393c7.1136-56.393-34.741-61.636-29.664-0.37393z" color="#000000" fill="#ecda31" fill-rule="evenodd" stroke-width="1px"/>
<path transform="translate(0 804.33)" d="m110.56 127.13c9.8881 1.1468 19.776 1.4256 29.664 0.24928 12.713 4.4455 6.9383 26.216-14.458 25.302-21.392-0.91382-24.014-18.405-15.206-25.551z" color="#000000" fill="#ecda31" fill-rule="evenodd" stroke-width="1px"/>
</g>
</svg>
